dist/img/date.svg

<svg width="18" height="18" viewBox="0 0 18 18" fill="none" xmlns="http://www.w3.org/2000/svg">
<g clip-path="url(#clip0_1_196)">
<path d="M16.3125 18H1.6875C0.75375 18 0 17.2463 0 16.3125V2.8125C0 1.87875 0.75375 1.125 1.6875 1.125H16.3125C17.2463 1.125 18 1.87875 18 2.8125V16.3125C18 17.2463 17.2463 18 16.3125 18ZM1.6875 2.25C1.3725 2.25 1.125 2.4975 1.125 2.8125V16.3125C1.125 16.6275 1.3725 16.875 1.6875 16.875H16.3125C16.6275 16.875 16.875 16.6275 16.875 16.3125V2.8125C16.875 2.4975 16.6275 2.25 16.3125 2.25H1.6875Z" fill="#FDFDFD"/>
<path d="M5.0625 4.5C4.7475 4.5 4.5 4.2525 4.5 3.9375V0.5625C4.5 0.2475 4.7475 0 5.0625 0C5.3775 0 5.625 0.2475 5.625 0.5625V3.9375C5.625 4.2525 5.3775 4.5 5.0625 4.5ZM12.9375 4.5C12.6225 4.5 12.375 4.2525 12.375 3.9375V0.5625C12.375 0.2475 12.6225 0 12.9375 0C13.2525 0 13.5 0.2475 13.5 0.5625V3.9375C13.5 4.2525 13.2525 4.5 12.9375 4.5ZM17.4375 6.75H0.5625C0.2475 6.75 0 6.5025 0 6.1875C0 5.8725 0.2475 5.625 0.5625 5.625H17.4375C17.7525 5.625 18 5.8725 18 6.1875C18 6.5025 17.7525 6.75 17.4375 6.75Z" fill="#FDFDFD"/>
</g>
<defs>
<clipPath id="clip0_1_196">
<rect width="18" height="18" fill="white"/>
</clipPath>
</defs>
</svg>

<svg width="18" height="18" fill="none" xmlns="http://www.w3.org/2000/svg"><g clip-path="url(#clip0_1_196)" fill="#FDFDFD"><path d="M16.313 18H1.688A1.685 1.685 0 010 16.312v-13.5c0-.933.754-1.687 1.688-1.687h14.624c.934 0 1.688.754 1.688 1.688v13.5c0 .933-.754 1.687-1.688 1.687zM1.688 2.25a.557.557 0 00-.563.563v13.5c0 .315.248.562.563.562h14.624a.557.557 0 00.563-.563v-13.5a.557.557 0 00-.563-.562H1.688z"/><path d="M5.063 4.5a.557.557 0 01-.563-.563V.563C4.5.247 4.747 0 5.063 0c.315 0 .562.247.562.563v3.375a.557.557 0 01-.563.562zm7.875 0a.557.557 0 01-.563-.563V.563c0-.315.248-.563.563-.563.314 0 .562.247.562.563v3.375a.557.557 0 01-.563.562zm4.5 2.25H.563A.557.557 0 010 6.187c0-.315.247-.562.563-.562h16.875c.315 0 .562.247.562.563a.557.557 0 01-.563.562z"/></g><defs><clipPath id="clip0_1_196"><path fill="#fff" d="M0 0h18v18H0z"/></clipPath></defs></svg>
